X: 1
T: Le Dans De Mardi Gras
M: 4/4
L: 1/8
K: Gmin
g2|: g2f2g2f2| d2c2d2f2| g3fd2f2| g3f (dc)B2 | G2F2D2G2 |
G2F2G2A2| B4B3B | A3 A (GF) | (D4D) (DF2) |
G2F2G2A2 | B3B3c2| d3 (c dc) B2|[1 G5g2 :|[2 G5 z2 ||
